tedbiz/images/9177067_marketing_report_data_business_analytics_stats_graph_statistics.svg

<svg viewBox="0 0 24 24" xmlns="http://www.w3.org/2000/svg"><g fill="none" stroke="#000" stroke-linecap="round" stroke-linejoin="round" stroke-width="1.5"><path d="m2 20h20"/><path d="m5 20v-11.8a.2.2 0 0 1 .2-.2h2.6a.2.2 0 0 1 .2.2v11.8"/><path d="m11 20v-15.73333c0-.14728.08954-.26667.2-.26667h2.6c.11046 0 .2.11939.2.26667v15.73333"/><path d="m17 20v-8.85c0-.08284.08954-.15.2-.15h2.6c.11046 0 .2.06716.2.15v8.85"/></g></svg>

<?xml version="1.0" ?><svg viewBox="0 0 24 24" xmlns="http://www.w3.org/2000/svg"><defs><style>.a{fill:none;stroke:#000;stroke-linecap:round;stroke-linejoin:round;stroke-width:1.5px;}</style></defs><line class="a" x1="2" x2="22" y1="20" y2="20"/><path class="a" d="M5,20V8.2A.2.2,0,0,1,5.2,8H7.8a.2.2,0,0,1,.2.2V20"/><path class="a" d="M11,20V4.26667C11,4.11939,11.08954,4,11.2,4h2.6c.11046,0,.2.11939.2.26667V20"/><path class="a" d="M17,20V11.15c0-.08284.08954-.15.2-.15h2.6c.11046,0,.2.06716.2.15V20"/></svg>
